examples/glyph.svg

<svg height="799" width="720" xmlns="http://www.w3.org/2000/svg">
<style>
path { fill: none; stroke: black; stroke-width: 3; }
</style>
<g transform="translate(0, 734) scale(1, -1)">
<path d="M265,49 c-97,0,-151,74,-151,147 c0,50,19,110,88,152 c33,-38,64,-74,109,-129 c34,-38,66,-74,103,-115 c-38,-34,-92,-55,-149,-55 z"/>
<path d="M268,649 c49,0,87,-36,87,-94 c0,-58,-44,-102,-106,-145 c-9,10,-18,21,-27,33 c-37,46,-45,77,-45,113 c0,53,40,93,91,93 z"/>
<path d="M675,389 l0,40 l-203,0 l0,-40 l79,-13 c-18,-79,-45,-144,-83,-205 c-39,41,-74,79,-115,123 c-35,38,-59,65,-80,89 c102,55,148,104,148,173 c0,75,-53,128,-152,128 c-94,0,-164,-54,-164,-142 c0,-53,19,-104,69,-161 l4,-5 c-100,-50,-151,-117,-151,-207 c0,-101,86,-184,211,-184 c97,0,161,39,204,88 l34,-37 c33,-34,64,-46,117,-46 c26,0,46,3,76,10 l4,44 l-96,12 c-30,32,-57,60,-81,86 c46,69,80,142,103,233 l76,14 z"/>
</g>
</svg>

<svg height="799" width="720" xmlns="http://www.w3.org/2000/svg">
<style>
path { fill: none; stroke: black; stroke-width: 3; }
</style>
<g transform="translate(0, 734) scale(1, -1)">
<path d="M265,49 C168,49,114,123,114,196 C114,246,133,306,202,348 C235,310,266,274,311,219 C345,181,377,145,414,104 C376,70,322,49,265,49 z"/>
<path d="M268,649 C317,649,355,613,355,555 C355,497,311,453,249,410 C240,420,231,431,222,443 C185,489,177,520,177,556 C177,609,217,649,268,649 z"/>
<path d="M675,389 L675,429 L472,429 L472,389 L551,376 C533,297,506,232,468,171 C429,212,394,250,353,294 C318,332,294,359,273,383 C375,438,421,487,421,556 C421,631,368,684,269,684 C175,684,105,630,105,542 C105,489,124,438,174,381 L178,376 C78,326,27,259,27,169 C27,68,113,-15,238,-15 C335,-15,399,24,442,73 L476,36 C509,2,540,-10,593,-10 C619,-10,639,-7,669,0 L673,44 L577,56 C547,88,520,116,496,142 C542,211,576,284,599,375 L675,389 z"/>
</g>
</svg>
